X:1
T: Skirmish
C: Nick Barber (version from Rosie Butler-Hall)
R: Polka
L: 1/8
M: 4/4
K: D
Ade|"D"f2>f2 edce|"D"d2d2 ABAG|"D"F2A2 "D/F#"D2A2|"G"BAGF "A"E|
Ade|"D"f2>f2 edce|"D"d2d2 ABAG|"D/F#"F2A2 "G"EFGE|1"D"F2D2 D:|2"D"F2D2 D2||
|:DE|"D"F2A2 "A"E2A2|"D"F2A2 "A"E2A2|"D"F2A2 "Bm"D2A2|"G"BAGF "A"E2|
DE|"D"F2A2 "A"E2A2|"D"F2A2 "A"E2A2|"D"F2A2 "G"EFGE|1"D"F2D2 D2:|2"D"F2D2 D|]